img/slider/bitcoin.svg

<svg width="62" height="58" viewBox="0 0 62 58" fill="none" xmlns="http://www.w3.org/2000/svg">
<rect width="61.4118" height="58" rx="13" fill="url(#paint0_linear)"/>
<g filter="url(#filter0_d)">
<path d="M41.5315 29.4075C40.7772 28.4682 39.6396 27.823 38.1179 27.4721C40.0557 26.5196 40.9077 24.9034 40.6733 22.6224C40.5954 21.7956 40.3577 21.0787 39.9614 20.4711C39.5644 19.8635 39.0287 19.375 38.3516 19.005C37.6752 18.6351 36.94 18.3533 36.1474 18.1591C35.3541 17.9649 34.444 17.824 33.4163 17.7365V13H30.4127V17.6048C29.8927 17.6048 29.0994 17.6173 28.0328 17.6424V13H25.0278V17.7365C24.5987 17.749 23.9681 17.7556 23.1358 17.7556L19 17.7365V20.8187H21.1653C22.154 20.8187 22.7327 21.2446 22.9015 22.0964V27.4906C23.032 27.4906 23.1358 27.4972 23.2137 27.5097H22.9015V35.065C22.7976 35.7036 22.4205 36.0235 21.77 36.0235H19.6047L19 39.4638H22.9015C23.1488 39.4638 23.5062 39.4671 23.9742 39.4723C24.4423 39.4789 24.7935 39.4816 25.0271 39.4816V44.274H28.0322V39.5375C28.5781 39.5507 29.3714 39.5566 30.412 39.5566V44.274H33.4163V39.4816C34.4829 39.4315 35.4292 39.3381 36.2546 39.1998C37.0807 39.0616 37.8706 38.8456 38.6249 38.5507C39.3792 38.2565 40.0099 37.8898 40.5169 37.4514C41.0245 37.0129 41.4434 36.4553 41.7755 35.7786C42.1068 35.1019 42.318 34.3185 42.4088 33.4291C42.579 31.6879 42.2859 30.3469 41.5315 29.4075ZM28.0909 21.0247C28.1818 21.0247 28.4387 21.0214 28.8616 21.0155C29.2846 21.0089 29.6358 21.003 29.9152 20.9964C30.1947 20.9905 30.5719 21.0056 31.0467 21.0431C31.5216 21.0807 31.9213 21.1307 32.2466 21.1932C32.5718 21.2558 32.9298 21.3591 33.3193 21.5033C33.7094 21.6475 34.0217 21.8226 34.2554 22.0293C34.4897 22.236 34.6879 22.4993 34.8505 22.8186C35.0131 23.1379 35.0944 23.5045 35.0944 23.918C35.0944 24.2688 35.0357 24.5881 34.9188 24.8771C34.802 25.1654 34.6264 25.4064 34.392 25.6006C34.1584 25.7948 33.9172 25.964 33.6698 26.1081C33.4232 26.2523 33.1075 26.3682 32.7235 26.4557C32.3402 26.5433 32.0054 26.6124 31.7191 26.6624C31.4328 26.7125 31.0754 26.7473 30.6463 26.7658C30.2173 26.7842 29.892 26.7974 29.6706 26.8033C29.4493 26.8092 29.1473 26.8092 28.7633 26.8033C28.3793 26.7974 28.1551 26.7941 28.0902 26.7941L28.0909 21.0247ZM36.2943 33.8241C36.1706 34.1124 36.0114 34.3633 35.8167 34.5765C35.6212 34.7892 35.3643 34.9775 35.0459 35.1401C34.7275 35.3033 34.4187 35.4343 34.1194 35.535C33.8201 35.6358 33.4594 35.7227 33.0371 35.7984C32.6142 35.8734 32.2438 35.9267 31.9247 35.9583C31.6063 35.9899 31.2258 36.0149 30.7837 36.0334C30.3416 36.0518 29.9966 36.061 29.7499 36.061C29.5026 36.061 29.1903 36.0577 28.8131 36.0518C28.436 36.0459 28.1955 36.0426 28.0909 36.0426V29.6893C28.1948 29.6893 28.5036 29.6834 29.0174 29.6702C29.5312 29.6577 29.9508 29.6518 30.276 29.6518C30.6013 29.6518 31.0502 29.6702 31.6227 29.7084C32.1946 29.7459 32.6757 29.8019 33.0665 29.8769C33.4566 29.952 33.8823 30.0678 34.3442 30.2245C34.8061 30.3812 35.1798 30.5721 35.4661 30.7979C35.7524 31.0237 35.9929 31.3114 36.1877 31.6622C36.3831 32.0131 36.4808 32.414 36.4808 32.865C36.4794 33.2165 36.4179 33.5358 36.2943 33.8241Z" fill="white"/>
</g>
<defs>
<filter id="filter0_d" x="12.8649" y="8.72979" width="39.4557" height="47.274" filterUnits="userSpaceOnUse" color-interpolation-filters="sRGB">
<feFlood flood-opacity="0" result="BackgroundImageFix"/>
<feColorMatrix in="SourceAlpha" type="matrix" values="0 0 0 0 0 0 0 0 0 0 0 0 0 0 0 0 0 0 127 0"/>
<feOffset dx="1.8649" dy="3.72979"/>
<feGaussianBlur stdDeviation="4"/>
<feColorMatrix type="matrix" values="0 0 0 0 0.204167 0 0 0 0 0.0748611 0 0 0 0 0.0340278 0 0 0 0.11 0"/>
<feBlend mode="normal" in2="BackgroundImageFix" result="effect1_dropShadow"/>
<feBlend mode="normal" in="SourceGraphic" in2="effect1_dropShadow" result="shape"/>
</filter>
<linearGradient id="paint0_linear" x1="13.6471" y1="3.41177" x2="47.7647" y2="58" gradientUnits="userSpaceOnUse">
<stop stop-color="#FFA131"/>
<stop offset="1" stop-color="#D67B0E"/>
</linearGradient>
</defs>
</svg>

<svg width="62" height="58" fill="none" xmlns="http://www.w3.org/2000/svg"><rect width="61.412" height="58" rx="13" fill="url(#paint0_linear)"/><g filter="url(#filter0_d)"><path d="M41.532 29.407c-.755-.939-1.892-1.584-3.414-1.935 1.938-.952 2.79-2.569 2.555-4.85-.078-.826-.315-1.543-.712-2.15a4.405 4.405 0 00-1.61-1.467 9.07 9.07 0 00-2.204-.846 17.984 17.984 0 00-2.73-.422V13h-3.004v4.605c-.52 0-1.314.012-2.38.037V13h-3.005v4.736c-.43.013-1.06.02-1.892.02L19 17.736v3.083h2.165c.989 0 1.568.426 1.736 1.277v5.395c.131 0 .235.006.313.019H22.9v7.555c-.103.639-.48.959-1.131.959h-2.165L19 39.463h3.901c.248 0 .605.003 1.073.008.468.007.82.01 1.053.01v4.792h3.005v-4.736c.546.013 1.34.019 2.38.019v4.717h3.004v-4.792a24.23 24.23 0 002.839-.282 11.867 11.867 0 002.37-.65c.754-.293 1.385-.66 1.892-1.099.508-.438.926-.996 1.258-1.672.332-.677.543-1.46.634-2.35.17-1.741-.123-3.082-.877-4.022zM28.09 21.026c.09 0 .348-.004.77-.01.424-.006.775-.012 1.054-.019.28-.005.657.01 1.132.047.475.038.874.088 1.2.15.325.063.683.166 1.072.31.39.145.703.32.936.526.235.207.433.47.595.79.163.319.244.686.244 1.099 0 .35-.058.67-.175.96a1.822 1.822 0 01-.527.723 5.316 5.316 0 01-.722.507c-.247.144-.563.26-.947.348-.383.087-.718.156-1.004.206-.286.05-.644.085-1.073.104a68.55 68.55 0 01-.975.037c-.222.006-.524.006-.908 0l-.673-.009v-5.77zm8.203 12.8a2.66 2.66 0 01-.477.752 2.703 2.703 0 01-.771.563 6.764 6.764 0 01-.927.395c-.299.1-.66.188-1.082.263-.423.075-.793.129-1.112.16-.319.032-.7.057-1.141.075a26.509 26.509 0 01-1.97.019c-.378-.006-.619-.01-.723-.01V29.69c.104 0 .413-.006.926-.019a53.53 53.53 0 011.259-.018c.325 0 .774.018 1.347.056.572.038 1.053.094 1.443.169.39.075.816.19 1.278.348.462.156.836.347 1.122.573.286.226.527.513.722.864.195.351.293.752.293 1.203-.002.352-.063.67-.187.96z" fill="#fff"/></g><defs><linearGradient id="paint0_linear" x1="13.647" y1="3.412" x2="47.765" y2="58" gradientUnits="userSpaceOnUse"><stop stop-color="#FFA131"/><stop offset="1" stop-color="#D67B0E"/></linearGradient><filter id="filter0_d" x="12.865" y="8.73" width="39.456" height="47.274" filterUnits="userSpaceOnUse" color-interpolation-filters="sRGB"><feFlood flood-opacity="0" result="BackgroundImageFix"/><feColorMatrix in="SourceAlpha" values="0 0 0 0 0 0 0 0 0 0 0 0 0 0 0 0 0 0 127 0"/><feOffset dx="1.865" dy="3.73"/><feGaussianBlur stdDeviation="4"/><feColorMatrix values="0 0 0 0 0.204167 0 0 0 0 0.0748611 0 0 0 0 0.0340278 0 0 0 0.11 0"/><feBlend in2="BackgroundImageFix" result="effect1_dropShadow"/><feBlend in="SourceGraphic" in2="effect1_dropShadow" result="shape"/></filter></defs></svg>
